X:26
T:Jobbágytelkén sütik a jó kenyeret
M:4/4
L:1/4
K:D
AABG | EAGF | EDDz |
ddfd | BBcd | AAAz |
ddfd | BBcd | AGF2 |
AABG | EAGF | EDDz |

